X:12
T:Nouvelle Anne. ET.12, Le
M:6/8
L:1/8
Q:1/4=100
S:Eliza Tennyson MS, Lincolnshire,1822
R:Quadrille
O:England;Lincolnshire;Somersby
Z:vmp.R.Greig 2011 <http://www.village-music-project.org.uk>
K:Eb
E|E>FG G>AB|B3 Bcd|e2Ee2d|d2cB2B|!
A3~cBA|G2e BGE|FAcB2D|E3E2||!
G|F2cB2A|G2Be2d|dcB BAG|”^undotted in ms”G3{A/}F2G|!
A2B c2d|[e3E3]E2F|G2AF2G|”^undotted in ms”E3c2B|!
AGAF2A|GFGE2G|F2BE2B|{E/}DCDB,2B|!
[A2F2]Bc2d|e3B2G|A2fG2e|F2cB2D|!
E>FG G>AB|B3Bcd|e2Ee2d|d2cB2B|!
“^undotted in ms”A3cBA|G2e BGE|FAcB2D|E3z2||!
G|c>de e>fg|g3G=A=B|c2GE2C|G3G2G|!
c>de e>fg|a3g2^f|g2G G=A=B|c3|]

